third_party/noto/noto_2/emoji_u1f484.svg

<svg enable-background="new 0 0 128 128" version="1.1" viewBox="0 0 128 128" xmlns="http://www.w3.org/2000/svg"><path d="m40.05 80.51v-46.34c0-16.97 6.02-29.31 12.97-29.94 6.02-0.55 11.45 1.47 17.97 5.83 9.38 6.27 16.96 16.09 16.96 26.11v44.34s-7.04 1.44-23.95 1.44-23.95-1.44-23.95-1.44z" fill="#C62828"/><path d="m54.21 25.21c7.98 12.97 19.96 15.97 26.95 12.97 4.94-2.12 5.56-5.8 3.99-9.98-5.99-15.96-23.96-25.94-31.94-23.95-4.94 1.24-5.7 10.08 1 20.96z" fill="#F44336"/><path d="m68.34 36.84c0.75 0.51 0.05 1.07-0.8 0.75-3.3-1.23-8.84-2.92-14.51-9.72-3.39-4.07-5.37-9.4-5-14.68 0.12-1.66 0.85-4.47 2.07-6.35 0.51-0.79 0.86-0.42 0.7 0.74-0.67 4.9 0.77 9.27 2.11 12.19 4.39 9.53 10.98 14.03 15.43 17.07z" fill="#FF8383"/><path d="m93.47 96.85s-9.75 2.65-29.74 2.65-29.2-2.65-29.2-2.65v-16.83l58.93-0.07v16.9z" fill="#E2A610"/><polygon points="91.05 95.11 79.53 96.96 79.53 83.42 91.05 81.56" fill="#9E740B"/><path d="m87.95 79.9s-8.09 2.1-25.36 2.1-22.54-2.1-22.54-2.1v-11.24s3.3 7.42 23.38 5.81c21.39-1.71 24.53-12.42 24.53-12.42v17.85z" fill="#A12524"/><path d="m87.96 76.67c0 2.24-10.81 4.05-23.96 4.05s-24-1.81-24-4.05c0 0-5.47 2.16-5.47 3.26 0 2.77 13.19 5.02 29.47 5.02s29.47-2.25 29.47-5.02c0-1.11-5.51-3.43-5.51-3.26z" fill="#FFCA28"/><path d="m50.99 83.9c-3.44-0.23-5.85-0.88-6.59-1.79-1.12-1.37 0.19-2.18 1.62-2.02 1.94 0.22 2.22 0.43 6.1 0.81 4.53 0.44 7.92 0.44 6.85 1.79-0.72 0.9-3.98 1.48-7.98 1.21z" fill="#FFF59D"/><path d="m100.19 96.29s-11.83 4.6-35.92 4.6-36.45-4.55-36.45-4.55l0.04 21.82c0.97 3.25 16.78 5.84 36.14 5.84s35.17-2.59 36.14-5.85l0.05-21.86z" fill="#424242"/><path d="m96.5 120.56c-2.09 0.91-9.92 2.4-16.02 2.75v-21.81l16.05-2.59-0.03 21.65z" fill="#212121"/><path d="m93.42 92.21c0 2.75-13.28 4.97-29.42 4.97s-29.48-2.23-29.48-4.97c0 0-6.71 2.65-6.71 4 0 3.4 16.2 6.16 36.19 6.16s36.19-2.76 36.19-6.16c0-1.35-6.77-4.2-6.77-4z" fill="#757575"/><path d="m55.42 101.12c-3.87 0.11-10.42-0.27-14.17-1.46-3.62-1.15-1.95-3.79 1.25-3.24 2.95 0.51 7.32 1.37 17.77 1.49 3.13 0.03 3.29 1.08 3.09 1.75-0.28 0.95-1.57 1.29-7.94 1.46z" fill="#90A4AE"/></svg>

<?xml version="1.0" encoding="utf-8"?>
<!-- Generator: Adobe Illustrator 25.2.3, SVG Export Plug-In . SVG Version: 6.00 Build 0)  -->
<svg version="1.1" id="Layer_1" xmlns="http://www.w3.org/2000/svg" xmlns:xlink="http://www.w3.org/1999/xlink" x="0px" y="0px"
	 viewBox="0 0 128 128" style="enable-background:new 0 0 128 128;" xml:space="preserve">
<g>
	<path style="fill:#C62828;" d="M40.05,80.51V34.17c0-16.97,6.02-29.31,12.97-29.94c6.02-0.55,11.45,1.47,17.97,5.83
		c9.38,6.27,16.96,16.09,16.96,26.11v44.34c0,0-7.04,1.44-23.95,1.44S40.05,80.51,40.05,80.51z"/>
	<path style="fill:#F44336;" d="M54.21,25.21c7.98,12.97,19.96,15.97,26.95,12.97c4.94-2.12,5.56-5.8,3.99-9.98
		C79.16,12.24,61.19,2.26,53.21,4.25C48.27,5.49,47.51,14.33,54.21,25.21z"/>
	<path style="fill:#FF8383;" d="M68.34,36.84c0.75,0.51,0.05,1.07-0.8,0.75c-3.3-1.23-8.84-2.92-14.51-9.72
		c-3.39-4.07-5.37-9.4-5-14.68c0.12-1.66,0.85-4.47,2.07-6.35c0.51-0.79,0.86-0.42,0.7,0.74c-0.67,4.9,0.77,9.27,2.11,12.19
		C57.3,29.3,63.89,33.8,68.34,36.84z"/>
	<path style="fill:#E2A610;" d="M93.47,96.85c0,0-9.75,2.65-29.74,2.65s-29.2-2.65-29.2-2.65V80.02l58.93-0.07V96.85z"/>
	<polygon style="fill:#9E740B;" points="91.05,95.11 79.53,96.96 79.53,83.42 91.05,81.56 	"/>
	<path style="fill:#A12524;" d="M87.95,79.9c0,0-8.09,2.1-25.36,2.1s-22.54-2.1-22.54-2.1V68.66c0,0,3.3,7.42,23.38,5.81
		c21.39-1.71,24.53-12.42,24.53-12.42V79.9z"/>
	<path style="fill:#FFCA28;" d="M87.96,76.67c0,2.24-10.81,4.05-23.96,4.05s-24-1.81-24-4.05c0,0-5.47,2.16-5.47,3.26
		c0,2.77,13.19,5.02,29.47,5.02s29.47-2.25,29.47-5.02C93.47,78.82,87.96,76.5,87.96,76.67z"/>
	<path style="fill:#FFF59D;" d="M50.99,83.9c-3.44-0.23-5.85-0.88-6.59-1.79c-1.12-1.37,0.19-2.18,1.62-2.02
		c1.94,0.22,2.22,0.43,6.1,0.81c4.53,0.44,7.92,0.44,6.85,1.79C58.25,83.59,54.99,84.17,50.99,83.9z"/>
	<path style="fill:#424242;" d="M100.19,96.29c0,0-11.83,4.6-35.92,4.6s-36.45-4.55-36.45-4.55l0.04,21.82
		C28.83,121.41,44.64,124,64,124c19.36,0,35.17-2.59,36.14-5.85L100.19,96.29z"/>
	<path style="fill:#212121;" d="M96.5,120.56c-2.09,0.91-9.92,2.4-16.02,2.75V101.5l16.05-2.59L96.5,120.56z"/>
	<path style="fill:#757575;" d="M93.42,92.21c0,2.75-13.28,4.97-29.42,4.97s-29.48-2.23-29.48-4.97c0,0-6.71,2.65-6.71,4
		c0,3.4,16.2,6.16,36.19,6.16s36.19-2.76,36.19-6.16C100.19,94.86,93.42,92.01,93.42,92.21z"/>
	<path style="fill:#90A4AE;" d="M55.42,101.12c-3.87,0.11-10.42-0.27-14.17-1.46c-3.62-1.15-1.95-3.79,1.25-3.24
		c2.95,0.51,7.32,1.37,17.77,1.49c3.13,0.03,3.29,1.08,3.09,1.75C63.08,100.61,61.79,100.95,55.42,101.12z"/>
</g>
</svg>
